X:1
T:Livre de Guittarre dédié au Roy - 1682  6. Passacaille
T:Livre de Guittarre dédié au Roy - 1682 6. Passacaille 
T:Robert de Visée
C:Robert de Visée
%%score { 1 | 2 }
L:1/8
Q:1/4=45
M:3/4
K:C
V:1 treble-8 nm="Guitare classique" snm="Guit."
V:2 tab stafflines=5 strings=E2,A2,D3,G3,B3,E4 nostems 
V:1
S"^A la fin de chaque couplet l'on joue le premier une fois seulement""^A" A,B Cd | %1
 [EAc]2 ([EA^ce]2 ^fg) | !breath![Ad^f]2 [Acf][Acf] !breath![Bd^g]2 | [cea]D !breath![EAB]2 A,A | %4
 [EAc]2 ::"^B" ([EAcea]e ab) | ([EAcec']2 [dfb]c' (ba)) | ([EB^g]^F) ([^GBe](f e)d) | %8
 ([A,Ac]D (E)A B!breath!^G) |S ([B,^G]A) ::"^C" (A(b c')d') | [^Geb]2 (=G([fa] b)[ec']) | %12
 [^Fea]2 (=F([e^g] a)d) | ([EB^g]F) (([Eg]!breath!D) (((C!breath!B,)))) |S [A,ca]2 :: %15
"^D" (f!breath!e) (d!breath!c) | [E^Gd]2 (([EGB]D) (CB)) | [EAc]2 ([A,a]g) (f!breath!e) | %18
 ([Dd]!breath!c) ([EAc]!breath!B) A,^G |S [EAc]2 ::"^E" (ce (([ce])[df])) | %21
 !breath![Bd]2 (Bd ((([Bd])[ce]))) | !breath![Ac]2 A,c ((([A,c][B,d]))) | %23
 !breath![DAB]2 (!breath![E^GB](^c) d)B |S [EAc]2 ::"^F" (!breath![^GBe](f e)d) | %26
 !breath![EA^c]2 ([cea](b a)g) | (!breath![Ad^f]2 [^dfb](c' b)a) | [e^g]>a !breath![Eea]3 g | %29
S ([A,^g]a) ::"^G" [A,a]g !breath!fe | ([Adf]d [GBg])f !breath!ed | ([Ce]c) ([EGcec'](b a)g) | %33
 ([Df]e) ([Dd]c) (([EAc]/B/)(A/^G/)) |S [EAc]2 ::"^H" [EAce]3 e | [A,a]B !breath![^Cg]2 A,a | %37
 !breath![Ad^f]2 [D^Gdeb]3 c' | (([cea][db])) !breath![Be^g]3 a |S [A,ea]2 ::"^I" A,B Cd | %41
 [EAc]2 ([EA^c]2 ^fg) | !breath![Ad^f]2 [Acf][Acf] !breath![Bd^g]2 | ([cea]D) !breath![EAB]2 A,A | %44
 [EAc]2 :| %45
V:2
 !5!A,, !2!B, !5!C, !2!D | [!4!E,!3!A,!2!C]2 ([!4!E,!3!A,!2!^C!1!E]2 !1!^F !1!G) | %2
 !breath![!3!A,!2!D!1!^F]2 [!3!A,!2!C!1!F] [!3!A,!2!C!1!F] !breath![!3!B,!2!D!1!^G]2 | %3
 [!3!C!2!E!1!A] !4!D, !breath![!4!E,!3!A,!2!B,]2 !5!A,, !3!A, | [!4!E,!3!A,!2!C]2 :: %5
 ([!5!E,!4!A,!3!C!2!E!1!A] !2!E !1!A !1!B) | %6
 ([!5!E,!4!A,!3!C!2!E!1!c]2 [!3!D!2!F!1!B] !1!c (!1!B !1!A)) | %7
 ([!4!E,!2!B,!1!^G] !4!^F,) ([!3!^G,!2!B,!1!E] (!1!F !1!E) !2!D) | %8
 ([!5!A,,!3!A,!2!C] !4!D, (!4!E,) !3!A, !2!B, !breath!!3!^G,) | ([!5!B,,!3!^G,] !3!A,) :: %10
 (!4!A, (!1!B !1!c) !1!d) | [!4!^G,!2!E!1!B]2 (!4!=G, ([!2!F!1!A] !1!B) [!2!E!1!c]) | %12
 [!4!^F,!2!E!1!A]2 (!4!=F, ([!2!E!1!^G] !1!A) !2!D) | %13
 ([!4!E,!2!B,!1!^G] !4!F,) (([!4!E,!1!G] !breath!!4!D,) (!5!C, !breath!!5!B,,)) | %14
 [!5!A,,!3!C!1!A]2 :: (!1!F !breath!!1!E) (!2!D !breath!!2!C) | %16
 [!4!E,!3!^G,!2!D]2 (([!4!E,!3!G,!2!B,] !4!D,) (!5!C, !2!B,)) | %17
 [!4!E,!3!A,!2!C]2 ([!5!A,,!1!A] !1!G) (!1!F !breath!!1!E) | %18
 ([!4!D,!2!D] !breath!!2!C) ([!4!E,!3!A,!2!C] !breath!!2!B,) !5!A,, !3!^G, | [!4!E,!3!A,!2!C]2 :: %20
 (!3!C !2!E (([!3!C!2!E]) [!3!D!2!F])) | %21
 !breath![!3!B,!2!D]2 (!3!B, !2!D ((([!3!B,!2!D]) [!3!C!2!E]))) | %22
 !breath![!3!A,!2!C]2 !5!A,, !2!C ((([!5!A,,!2!C] [!5!B,,!2!D]))) | %23
 !breath![!4!D,!3!A,!2!B,]2 (!breath![!4!E,!3!^G,!2!B,] (!2!^C) !2!D) !2!B, | [!4!E,!3!A,!2!C]2 :: %25
 (!breath![!3!^G,!2!B,!1!E] (!1!F !1!E) !2!D) | %26
 !breath![!4!E,!3!A,!2!^C]2 ([!3!C!2!E!1!A] (!1!B !1!A) !2!G) | %27
 (!breath![!4!A,!3!D!2!^F]2 [!3!^D!2!F!1!B] (!1!c !1!B) !2!A) | %28
 [!3!E!2!^G]3/2 !1!A/ !breath![!5!E,!2!E!1!A]3 !1!G | ([!5!A,,!1!^G] !1!A) :: %30
 [!5!A,,!1!A] !1!G !breath!!1!F !1!E | %31
 ([!3!A,!2!D!1!F] !2!D [!3!G,!2!B,!1!G]) !1!F !breath!!1!E !2!D | %32
 ([!5!C,!1!E] !2!C) ([!5!E,!4!G,!3!C!2!E!1!c] (!1!B !1!A) !2!G) | %33
 ([!5!D,!2!F] !2!E) ([!4!D,!2!D] !2!C) (([!4!E,!3!A,!2!C]/ !2!B,/) (!3!A,/ !3!^G,/)) | %34
 [!4!E,!3!A,!2!C]2 :: [!4!E,!3!A,!2!C!1!E]3 !1!E | %36
 [!5!A,,!1!A] !2!B, !breath![!5!^C,!1!G]2 !5!A,, !1!A | %37
 !breath![!3!A,!2!D!1!^F]2 [!5!D,!4!^G,!3!D!2!E!1!B]3 !1!c | %38
 (([!3!C!2!E!1!A] [!3!D!1!B])) !breath![!3!B,!2!E!1!^G]3 !1!A | [!5!A,,!2!E!1!A]2 :: %40
"_Structure du morceau:\n\n\n A\n \n\n \n\n B\n \n\nA\n\n C\n \n\nA\n\n D\n \n\nA\n\n E\n \n\nA\n\n F\n \n\nA\n\n G\n \n\nA\n\n H\n \n\nA\n\n I\n \n\n\n\n" !5!A,, !2!B, !5!C, !2!D | %41
 [!4!E,!3!A,!2!C]2 ([!4!E,!3!A,!2!^C]2 !1!^F !1!G) | %42
 !breath![!3!A,!2!D!1!^F]2 [!3!A,!2!C!1!F] [!3!A,!2!C!1!F] !breath![!3!B,!2!D!1!^G]2 | %43
 ([!3!C!2!E!1!A] !4!D,) !breath![!4!E,!3!A,!2!B,]2 !5!A,, !3!A, | [!4!E,!3!A,!2!C]2 :| %45

